build/assets/img/favicons/icon-favicon.svg

<svg width="435" height="435" fill="none" xmlns="http://www.w3.org/2000/svg"><rect width="435" height="435" rx="100" fill="#fff"/><path fill-rule="evenodd" clip-rule="evenodd" d="M223.257 84.942a8.883 8.883 0 018.548-.009l81.596 47.347c4.255 2.332 5.794 7.638 3.438 11.85-2.356 4.212-7.716 5.736-11.971 3.404l-77.318-45.002-77.198 42.531c-4.25 2.341-9.613.829-11.978-3.379-2.365-4.207-.838-9.516 3.412-11.857l81.471-44.885zm4.304 196.351c4.864.017 8.793 3.933 8.777 8.748l-.119 34.433 68.493-37.722c4.25-2.341 9.612-.827 11.977 3.38 2.365 4.208.836 9.516-3.414 11.857l-77.056 42.983c-6.493 3.076-10.897 3.076-17.495 0l-77.055-45.362c-4.218-2.398-5.673-7.726-3.251-11.902 2.422-4.175 7.804-5.616 12.022-3.219l68.166 39.811.118-34.318c.017-4.815 3.973-8.705 8.837-8.689z" fill="url(#paint0_linear)"/><path fill-rule="evenodd" clip-rule="evenodd" d="M335.415 149.891c2.653 1.637 4.279 4.611 4.279 7.822v118.183c0 5.02-3.906 9.091-8.726 9.091-4.819 0-8.726-4.071-8.726-9.091V173.064l-85.044 50.537v31.901c0 5.021-3.907 9.091-8.726 9.091-4.819 0-8.726-4.07-8.726-9.091v-31.866l-91.454-51.53v105.203c0 5.02-3.906 9.09-8.726 9.09-4.819 0-8.726-4.07-8.726-9.09V156.854c0-3.203 1.618-6.17 4.259-7.809a8.424 8.424 0 018.619-.188l104.726 59.009 98.33-58.124a8.424 8.424 0 018.641.149z" fill="url(#paint1_linear)"/><path fill-rule="evenodd" clip-rule="evenodd" d="M208.594 38.963c11.466-6.986 19.854-11.46 31.276-4.404l126.37 73.995c8.297 5.126 11.829 13.687 6.643 21.888-5.186 8.201-16.062 5.125-24.359 0L229.733 60.117 88.824 138.66v159.241l140.909 80.261 118.928-69.188c8.495-4.798 22.277-8.396 27.131 0 4.855 8.397-.121 16.971-8.616 21.769L251.751 399.18c-10.573 5.972-26.421 8.807-40.944.041L75.724 322.614c-11.545-6.086-17.715-9.817-17.715-22.75v-154.54c-.23-12.612 3.745-24.269 14.631-30.09l135.954-76.27z" fill="url(#paint2_linear)"/><defs><linearGradient id="paint0_linear" x1="137.264" y1="211.057" x2="322.208" y2="212.468" gradientUnits="userSpaceOnUse"><stop stop-color="#1758A0"/><stop offset="1" stop-color="#0A3D76"/></linearGradient><linearGradient id="paint1_linear" x1="110.84" y1="209.184" x2="339.662" y2="212.177" gradientUnits="userSpaceOnUse"><stop stop-color="#CD1732"/><stop offset=".5" stop-color="#B6142C"/><stop offset="1" stop-color="#8B1022"/></linearGradient><linearGradient id="paint2_linear" x1="58" y1="196.598" x2="377.694" y2="198.765" gradientUnits="userSpaceOnUse"><stop stop-color="#B6142C"/><stop offset="1" stop-color="#A62E41"/></linearGradient></defs></svg>

<svg width="435" height="435" viewBox="0 0 435 435" fill="none" xmlns="http://www.w3.org/2000/svg">
<rect width="435" height="435" rx="100" fill="white"/>
<path fill-rule="evenodd" clip-rule="evenodd" d="M223.257 84.9424C225.913 83.4786 229.145 83.4752 231.805 84.9334L313.401 132.28C317.656 134.612 319.195 139.918 316.839 144.13C314.483 148.342 309.123 149.866 304.868 147.534L227.55 102.532L150.352 145.063C146.102 147.404 140.739 145.892 138.374 141.684C136.009 137.477 137.536 132.168 141.786 129.827L223.257 84.9424ZM227.561 281.293C232.425 281.31 236.354 285.226 236.338 290.041L236.219 324.474L304.712 286.752C308.962 284.411 314.324 285.925 316.689 290.132C319.054 294.34 317.525 299.648 313.275 301.989L236.219 344.972C229.726 348.048 225.322 348.048 218.724 344.972L141.669 299.61C137.451 297.212 135.996 291.884 138.418 287.708C140.84 283.533 146.222 282.092 150.44 284.489L218.606 324.3L218.724 289.982C218.741 285.167 222.697 281.277 227.561 281.293Z" fill="url(#paint0_linear)"/>
<path fill-rule="evenodd" clip-rule="evenodd" d="M335.415 149.891C338.068 151.528 339.694 154.502 339.694 157.713V275.896C339.694 280.916 335.788 284.987 330.968 284.987C326.149 284.987 322.242 280.916 322.242 275.896V173.064L237.198 223.601V255.502C237.198 260.523 233.291 264.593 228.472 264.593C223.653 264.593 219.746 260.523 219.746 255.502V223.636L128.292 172.106V277.309C128.292 282.329 124.386 286.399 119.566 286.399C114.747 286.399 110.84 282.329 110.84 277.309V156.854C110.84 153.651 112.458 150.684 115.099 149.045C117.739 147.405 121.013 147.334 123.718 148.857L228.444 207.866L326.774 149.742C329.477 148.198 332.762 148.255 335.415 149.891Z" fill="url(#paint1_linear)"/>
<path fill-rule="evenodd" clip-rule="evenodd" d="M208.594 38.9633C220.06 31.9771 228.448 27.5027 239.87 34.5589L366.24 108.554C374.537 113.68 378.069 122.241 372.883 130.442C367.697 138.643 356.821 135.567 348.524 130.442L229.733 60.1168L88.824 138.661V297.902L229.733 378.163L348.661 308.975C357.156 304.177 370.938 300.579 375.792 308.975C380.647 317.372 375.671 325.946 367.176 330.744L251.751 399.18C241.178 405.152 225.33 407.987 210.807 399.221L75.7244 322.614C64.1786 316.528 58.0087 312.797 58.0087 299.864L58.0095 145.324C57.7784 132.712 61.7535 121.055 72.6404 115.234L208.594 38.9633Z" fill="url(#paint2_linear)"/>
<defs>
<linearGradient id="paint0_linear" x1="137.264" y1="211.057" x2="322.208" y2="212.468" gradientUnits="userSpaceOnUse">
<stop stop-color="#1758A0"/>
<stop offset="1" stop-color="#0A3D76"/>
</linearGradient>
<linearGradient id="paint1_linear" x1="110.84" y1="209.184" x2="339.662" y2="212.177" gradientUnits="userSpaceOnUse">
<stop stop-color="#CD1732"/>
<stop offset="0.5" stop-color="#B6142C"/>
<stop offset="1" stop-color="#8B1022"/>
</linearGradient>
<linearGradient id="paint2_linear" x1="58" y1="196.598" x2="377.694" y2="198.765" gradientUnits="userSpaceOnUse">
<stop stop-color="#B6142C"/>
<stop offset="1" stop-color="#A62E41"/>
</linearGradient>
</defs>
</svg>
